X: 35808
T: Salt, The
R: three-two
M: 3/2
K: Gmajor
|:D3E ~G3B AGEG|D3E GEAG DEGE|D3E ~G3B AGAB|
M:4/4
[1 dGcG B3B|BcBG AGEG:|2 dGcG B3B|BcBG AGAB||
|:d2zd ddGd|dcBG AGAB|d2zd ddGd|dcBG A3B|
dGeG d2Bd|eGdG cGBz|e3c dgBz|zcBG AGAB:|

